symbols/web/shopping_bag/materialsymbolsoutlined/shopping_bag_wght200fill1_48px.svg

<svg xmlns="http://www.w3.org/2000/svg" height="48" width="48"><path d="M18 21.55q.35 0 .55-.225.2-.225.2-.575v-5.2h-1.5v5.2q0 .35.2.575.2.225.55.225Zm.75-8.8V14h10.5v-1.25q0-2.2-1.525-3.7T24 7.55q-2.2 0-3.725 1.5t-1.525 3.7ZM30 21.55q.35 0 .55-.225.2-.225.2-.575v-5.2h-1.5v5.2q0 .35.2.575.2.225.55.225ZM12.75 42q-1.15 0-1.95-.8t-.8-1.95v-22.5q0-1.15.8-1.95t1.95-.8h4.5v-1.25q0-2.8 1.95-4.775Q21.15 6 24 6q2.85 0 4.8 1.975 1.95 1.975 1.95 4.775V14h4.5q1.15 0 1.95.8t.8 1.95v22.5q0 1.15-.8 1.95t-1.95.8Z"/></svg>

<svg xmlns="http://www.w3.org/2000/svg" height="48" width="48"><path d="M18 21.55Q18.35 21.55 18.55 21.325Q18.75 21.1 18.75 20.75V15.55H17.25V20.75Q17.25 21.1 17.45 21.325Q17.65 21.55 18 21.55ZM18.75 12.75V14H29.25V12.75Q29.25 10.55 27.725 9.05Q26.2 7.55 24 7.55Q21.8 7.55 20.275 9.05Q18.75 10.55 18.75 12.75ZM30 21.55Q30.35 21.55 30.55 21.325Q30.75 21.1 30.75 20.75V15.55H29.25V20.75Q29.25 21.1 29.45 21.325Q29.65 21.55 30 21.55ZM12.75 42Q11.6 42 10.8 41.2Q10 40.4 10 39.25V16.75Q10 15.6 10.8 14.8Q11.6 14 12.75 14H17.25V12.75Q17.25 9.95 19.2 7.975Q21.15 6 24 6Q26.85 6 28.8 7.975Q30.75 9.95 30.75 12.75V14H35.25Q36.4 14 37.2 14.8Q38 15.6 38 16.75V39.25Q38 40.4 37.2 41.2Q36.4 42 35.25 42Z"/></svg>
